X:1
T:Title
%%score ( 1 2 ) { 3 | 4 }
L:1/8
Q:1/4=98
M:6/8
K:G
V:1 treble nm="Grand Piano, Soprano"
V:2 treble 
V:3 bass nm="Choir Pad, Talk It Over with Jesus"
V:4 bass 
V:1
 D2 B A2 G | G2 F .F3 | D2 [Dc] [DB][DA][DG] | [GB]3 [FA]3 | D2 B A2 G | G2 F .F3 | %6
w: By~John~David~Brunk * * *||||||
 D2 [Fc] [GB][FA]G | [FA]3 [DG]3 | [Gd]2 [Gd] [Gd][Gc][GB] | [Ac]3 [FA]3 | %10
w: ||||
 [Fc]2 [Fc] [Ec][DB][CA] | [DB]3 [DG]3 | [GB]2 [GB] Bc[Gd] | [Ge]3 [Gc]3 | [GB]2 [GB] [GB][FA]G | %15
w: |||||
 [FA]3 G3- | G6 |] %17
w: ||
V:2
 B,6 | [CD]6 | x6 | x6 | B,6 | [CD]6 | x6 | x6 | x6 | x6 | x6 | x6 | z3 .G3 | x6 | x6 | x6 | x6 |] %17
V:3
 G,6 | D,6 | D,2 F, G,A,B, | D3 D3 | G,6 | D,6 | D2 D DCB, | C3[K:bass] B,3 | %8
 B,2 B, B,E[K:treble]D | D3 D3 | D2 A,[K:bass] F,2 F, | G,3 B,3 | D2[K:treble] D DA,B, | C3 E3 | %14
 D2 D D[K:bass]CB, | C3 B,3- | B,6 |] %17
V:4
 G,,6 | A,,6 | z2 D, D,D,D, | D,3 D,3 | G,,6 | A,,6 | D,2 D, D,D,D, | D,3 G,3 | G,2 G, G,G,G, | %9
 D,3 D,3 | D,2 D, D,2 D, | z3 G,3 | G,2 G, G,2 G, | C,3 C,3 | D,2 D, D,D,D, | D,3 [G,,G,]3- | %16
 [G,,G,]6 |] %17

